X: 731
T:73. D'ye Ken John Peel
O: Cumbria
M:4/4
L:1/8
Q:1/4=150
R:Reel
K:A
P:A
|:cd|"A"e2e2 c2cd|"A"e2e2 c2Bc|"E7"d3d B2Bc|"E7"d2d2 B2cB|
"A"A2AA a2ag|"D"f2f2 "A"e2dc|"D"f2dB "A"A2GA|"E7"B4 "A"A2::
P:B
cd|"A"e2e2 cAcd|"A"e2e2 cABc|"E7"d2d2 BGBc|"E7"d2d2 B2cB|
"A"A2AA a2ag|"D"f2fe "A"e2dc|"D"f2dB "A"A2GA|"E7"B4 "A"A2::
P:C
cd|"A"e2>e2 c>EAc|"A"e2ec2EGB|"E7"d2dB2EGB|"E7"d2dB2EcB|
"A"A2AA a2ag|"D"fedf "A"e2dc|"D"f2dB "A"A2GA|"E7"B4 "A"A2::
P:D
cd|"A"e2>e2 c>EAc|"A"efed cEGB|"E7"d2dB2EGB|"E7"d2d(B B2)cB|
"A"A2AA a2ag|"D"fedf "A"e2dc|"D"f2dB A2GA|"E7"B4 "A"A2:|
